!!!COM: J.S. Bach
!!!OTL: bwv351.mxl
!!!OMV: bwv351.mxl
**kern
*I"Soprano
*I'S.
*clefG2
*k[b-]
*d:
*M4/4
*met(c)
4G 4B- 4d 4g
=1
8GL 8B- [8d [8g
8FJ 8A 8d] 8g]
[8E-XL [8G 8d [8g
8E-J] 8G] 8c#X 8g]
8DL [8A [8d [8f#X
8CnJ 8A] 8d] 8f#]
8BB-L [8d 8g [8b-
8GGJ 8d] 8fn 8b-]
=2
[8CL [8c 8e-X [8a
8CJ] 8c] 8d 8a]
[8C#XL 8B- [8en [8g
8C#J] 8A 8e] 8g]
4D; 4A 4d 4f#X
8DL [8A [8d [8f#
[8E-XJ 8A] 8d] 8f#]
=3
8E-XL] [8A [8c [8f#X
[8DJ 8A] 8c] 8f#]
8DL] [8A [8d [8f#X
[8CJ 8A] 8d] 8f#]
8CL] [8G [8d [8g
8BBnJ 8G] 8d] 8g]
8CL [8G [8c [8en
8BB-XJ 8G] 8c] 8e]
=
[8AAL 8A 8c [8f#X
8AAJ] 8c 8e-X 8f#]
[8DL 8c [8d [8f#X
16DL_ 16B- 16d_ 16f#_
16DJJ] 16A 16d] 16f#]
4GG; 4B- 4d 4g
!!linebreak:original
=4
4F 4c 4fn 4a
=5
8FL [8c [8f [8a
8GJ 8c] 8f] 8a]
8FL [8c [8g [8cc
8EnJ 8c] 8g] 8cc]
8FL [8c [8f [8a
[8E-XJ 8c] 8f] 8a]
8E-L] [8B- [8f
8DJ 8B-] 8f]
=6
8E-XL [8B- 8e-X [8g
8EnJ 8B-] 8d 8g]
8FL 8A 8c [8a
8F#XJ 8c 8e-X 8a]
4G; 4B- 4d 4b-
4GG 4d [4g 4b-
=7
[8DL [8d 8g] [8a
8DJ] 8d_ 8f#X 8a]
[8E-XL 8d] [8g
8E-J] 8G 8c 8g]
4D; 4A 4d 4f#X
4D 4A 4d 4f#
=8
8AAL [8A 8c [8f#X
8BB-J 8A] 8d 8f#]
[8CL [8A 8e-X [8f#X
8CJ] 8A] 8d 8f#]
8BB-L [8G [8d [8g
8BBnJ 8G] 8d] 8g]
[16CLL 16G [16en
16CJ] 16A 16e_
8C#XJ 8B-X 8e]
=9
[8DL 8A [8d [8f#X
8DJ] 8G 8d] 8f#]
[16DDLL 16A [16d [16f#X
16DDJ_ 16B- 16d_ 16f#_
8DDJ] 8cn 8d] 8f#]
[8GGL 8c [8d [8g
8GG;J] 8Bn 8d] 8g]
==
*-
